packages/katcn/src/icons/svg/layout5.svg

<svg width="24" height="25" viewBox="0 0 24 25" fill="none" xmlns="http://www.w3.org/2000/svg">
<path d="M17.6219 2.40002H6.27861C3.89055 2.40002 2 4.30002 2 6.70002V18.2C2 20.5 3.89055 22.4 6.27861 22.4H17.7214C20.1095 22.4 22 20.5 22 18.1V6.70002C21.9005 4.30002 20.01 2.40002 17.6219 2.40002ZM6.27861 4.40002H17.7214C18.9154 4.40002 19.9104 5.40002 19.9104 6.70002V8.20002H3.99005V6.70002C3.99005 5.40002 4.98507 4.40002 6.27861 4.40002ZM17.6219 20.4H6.27861C4.98507 20.4 3.99005 19.4 3.99005 18.1V10.1H19.9104V18.1C19.9104 19.4 18.9154 20.4 17.6219 20.4Z" fill="black"/>
<path d="M17.7 12.2H6.3C5.7 12.2 5.3 12.6 5.3 13.2C5.3 13.8 5.7 14.2 6.3 14.2H17.8C18.4 14.2 18.8 13.8 18.8 13.2C18.7 12.7 18.3 12.2 17.7 12.2Z" fill="black"/>
<path d="M17.7 16.3H6.3C5.7 16.3 5.3 16.7 5.3 17.3C5.3 17.9 5.7 18.3 6.3 18.3H17.8C18.4 18.3 18.8 17.9 18.8 17.3C18.8 16.7 18.3 16.3 17.7 16.3Z" fill="black"/>
</svg>

<svg xmlns="http://www.w3.org/2000/svg" fill="none" viewBox="0 0 24 25"><path fill="#000" d="M17.622 2.4H6.279C3.89 2.4 2 4.3 2 6.7v11.5c0 2.3 1.89 4.2 4.279 4.2H17.72c2.39 0 4.28-1.9 4.28-4.3V6.7c-.1-2.4-1.99-4.3-4.378-4.3m-11.343 2H17.72c1.194 0 2.19 1 2.19 2.3v1.5H3.99V6.7c0-1.3.995-2.3 2.289-2.3m11.343 16H6.279c-1.294 0-2.289-1-2.289-2.3v-8h15.92v8c0 1.3-.995 2.3-2.288 2.3"/><path fill="#000" d="M17.7 12.2H6.3c-.6 0-1 .4-1 1s.4 1 1 1h11.5c.6 0 1-.4 1-1-.1-.5-.5-1-1.1-1m0 4.1H6.3c-.6 0-1 .4-1 1s.4 1 1 1h11.5c.6 0 1-.4 1-1s-.5-1-1.1-1"/></svg>
